Origami/16x16/apps/citra.svg

<svg width="16" height="16" version="1.1" viewBox="0 0 16 16" xmlns="http://www.w3.org/2000/svg">
 <path d="m8 0a8 8 0 0 0 -8 8 8 8 0 0 0 8 8 8 8 0 0 0 8 -8 8 8 0 0 0 -8 -8z" style="fill:#ff9426"/>
 <g transform="scale(.5)">
  <circle cx="16" cy="16" r="12" style="fill:#ffffff"/>
  <path d="m15.971936 6.0001008c-1.247335-0.00595-2.410477 0.2455121-2.971913 0.5195402 7.56e-4 0.00404-8.02e-4 -0.023741-2.3e-5 -0.019641 0.095256 0.1968616 3 7.5 3 7.5l3-7.5c-0.59543-0.2738534-1.781925-0.4939507-3.028077-0.4998981z" style="fill:#d2e015"/>
  <path d="m15.971936 25.999895c-1.247335 6e-3 -2.410477-0.245512-2.971913-0.51954 7.56e-4 -4e-3 -8.02e-4 0.02374-2.3e-5 0.01964 0.09526-0.196861 3-7.5 3-7.5l3 7.5c-0.59543 0.273854-1.781925 0.493951-3.028077 0.499898z" style="fill:#c74a30"/>
  <path d="m25.999785 15.972047c6e-3 -1.247335-0.245512-2.410477-0.51954-2.971913-4e-3 7.56e-4 0.02374-8.02e-4 0.01964-2.3e-5 -0.196862 0.09526-7.5 3-7.5 3l7.5 3c0.273853-0.59543 0.493951-1.781925 0.499898-3.028077z" style="fill:#ff769d"/>
  <path d="m5.999991 15.972047c-6e-3 -1.247335 0.245512-2.410477 0.51954-2.971913 4e-3 7.56e-4 -0.02374-8.02e-4 -0.01964-2.3e-5 0.196861 0.09526 7.5 3 7.5 3l-7.5 3c-0.273854-0.59543-0.493951-1.781925-0.499898-3.028077z" style="fill:#f9a726"/>
  <path d="m23.051118 8.9092386c-0.877791-0.8862063-1.878068-1.5308614-2.46883-1.7340894-0.0023 0.00339 0.01622-0.017355 0.01387-0.013905-0.07185 0.2065583-3.18198 7.4246218-3.18198 7.4246218l7.424621-3.181981c-0.227387-0.614676-0.910734-1.6092868-1.787691-2.4946548z" style="fill:#89dc3c"/>
  <path d="m8.9091282 23.051229c-0.8862417-0.877757-1.5308614-1.878068-1.7340896-2.46883 0.00336-0.0023-0.017354 0.01622-0.013904 0.01387 0.2065607-0.07184 7.4246214-3.181981 7.4246214-3.181981l-3.181981 7.424622c-0.614676-0.227388-1.6092869-0.910735-2.4946546-1.787692z" style="fill:#dc6e33"/>
  <path d="m23.090648 23.051229c0.886206-0.877791 1.530861-1.878068 1.734089-2.46883-0.0034-0.0023 0.01736 0.01622 0.01391 0.01387-0.206559-0.07185-7.424621-3.18198-7.424621-3.18198l3.18198 7.424621c0.614676-0.227389 1.609287-0.910736 2.494655-1.787693z" style="fill:#dd4f3c"/>
  <path d="m8.9486577 8.9092392c0.8777564-0.8862417 1.8780683-1.5308614 2.4688303-1.7340896 0.0023 0.00336-0.01622-0.017354-0.01387-0.013904 0.07184 0.2065607 3.18198 7.4246214 3.18198 7.4246214l-7.4246222-3.181981c0.2273886-0.614676 0.9107352-1.6092869 1.7876925-2.4946546z" style="fill:#f8e12e"/>
 </g>
</svg>

<svg xmlns="http://www.w3.org/2000/svg" width="16" height="16" version="1.1" viewBox="0 0 16 16">
 <path style="fill:#ff9426" d="M 8,0 A 8,8 0 0 0 0,8 8,8 0 0 0 8,16 8,8 0 0 0 16,8 8,8 0 0 0 8,0 Z"/>
 <g transform="scale(0.5,0.5)">
  <circle style="fill:#ffffff" cx="16" cy="16" r="12"/>
  <path style="fill:#d2e015" d="M 15.971936,6.0001008 C 14.724601,5.9941508 13.561459,6.2456129 13.000023,6.519641 13.000779,6.523681 12.999221,6.4959 13,6.5 13.095256,6.6968616 16,14 16,14 L 19,6.5 C 18.40457,6.2261466 17.218075,6.0060493 15.971923,6.0001019 Z"/>
  <path style="fill:#c74a30" d="m 15.971936,25.999895 c -1.247335,0.006 -2.410477,-0.245512 -2.971913,-0.51954 7.56e-4,-0.004 -8.02e-4,0.02374 -2.3e-5,0.01964 0.09526,-0.196861 3,-7.5 3,-7.5 l 3,7.5 c -0.59543,0.273854 -1.781925,0.493951 -3.028077,0.499898 z"/>
  <path style="fill:#ff769d" d="m 25.999785,15.972047 c 0.006,-1.247335 -0.245512,-2.410477 -0.51954,-2.971913 -0.004,7.56e-4 0.02374,-8.02e-4 0.01964,-2.3e-5 -0.196862,0.09526 -7.5,3 -7.5,3 l 7.5,3 c 0.273853,-0.59543 0.493951,-1.781925 0.499898,-3.028077 z"/>
  <path style="fill:#f9a726" d="m 5.999991,15.972047 c -0.006,-1.247335 0.245512,-2.410477 0.51954,-2.971913 0.004,7.56e-4 -0.02374,-8.02e-4 -0.01964,-2.3e-5 0.196861,0.09526 7.5,3 7.5,3 l -7.5,3 C 6.226037,18.404681 6.00594,17.218186 5.999993,15.972034 Z"/>
  <path style="fill:#89dc3c" d="M 23.051118,8.9092386 C 22.173327,8.0230323 21.17305,7.3783772 20.582288,7.1751492 c -0.0023,0.00339 0.01622,-0.017355 0.01387,-0.013905 -0.07185,0.2065583 -3.18198,7.4246218 -3.18198,7.4246218 l 7.424621,-3.181981 C 24.611412,10.789209 23.928065,9.7945982 23.051108,8.9092302 Z"/>
  <path style="fill:#dc6e33" d="m 8.9091282,23.051229 c -0.8862417,-0.877757 -1.5308614,-1.878068 -1.7340896,-2.46883 0.00336,-0.0023 -0.017354,0.01622 -0.013904,0.01387 0.2065607,-0.07184 7.4246214,-3.181981 7.4246214,-3.181981 L 11.403775,24.83891 C 10.789099,24.611522 9.7944881,23.928175 8.9091204,23.051218 Z"/>
  <path style="fill:#dd4f3c" d="m 23.090648,23.051229 c 0.886206,-0.877791 1.530861,-1.878068 1.734089,-2.46883 -0.0034,-0.0023 0.01736,0.01622 0.01391,0.01387 -0.206559,-0.07185 -7.424621,-3.18198 -7.424621,-3.18198 l 3.18198,7.424621 c 0.614676,-0.227389 1.609287,-0.910736 2.494655,-1.787693 z"/>
  <path style="fill:#f8e12e" d="M 8.9486577,8.9092392 C 9.8264141,8.0229975 10.826726,7.3783778 11.417488,7.1751496 c 0.0023,0.00336 -0.01622,-0.017354 -0.01387,-0.013904 0.07184,0.2065607 3.18198,7.4246214 3.18198,7.4246214 L 7.1609758,11.403886 C 7.3883644,10.78921 8.071711,9.7945991 8.9486683,8.9092314 Z"/>
 </g>
</svg>
